X: 85
T:Butter'd Peas. WM.084
M:2/4
L:1/8
Q:200
S:Wm.Mittell's MS,New Romney,Kent,1799
R:Misc.
O:England
A:Kent
H:
Z:vmp.Chris Partington
W:1st cu set to the 2nd cu,foot it and turn your partner.1st Gent down
W:the middle with 2nd Lady,his partner with 2nd Gent,1 cou cross
W:over,below 3cu go up to top,cast off
K:G
BddB|cee2|BddB|cAA2|BddB|cee2|Bd Ac|BG"qu"G2:|!
|:Bdde|fdg2|BddB|cAA2|Bdde|fdg2|BdAc|BG"qu"G2:|]
